src/components/Icon/assets/target.svg

<svg width="24" height="24" viewBox="0 0 24 24" fill="none" xmlns="http://www.w3.org/2000/svg">
<path fill-rule="evenodd" clip-rule="evenodd" d="M13.0002 16.9998V19.9308C16.6122 19.4768 19.4772 16.6118 19.9312 12.9998H17.0002V10.9998H19.9312C19.4772 7.38881 16.6122 4.52281 13.0002 4.06981V6.99981H11.0002V4.06981C7.3892 4.52281 4.5232 7.38881 4.0692 10.9998H7.0002V12.9998H4.0692C4.5232 16.6118 7.3892 19.4768 11.0002 19.9308V16.9998H13.0002ZM2.0002 11.9998C2.0002 6.4858 6.4862 1.9998 12.0002 1.9998C17.5142 1.9998 22.0002 6.4858 22.0002 11.9998C22.0002 17.5138 17.5142 21.9998 12.0002 21.9998C6.4862 21.9998 2.0002 17.5138 2.0002 11.9998ZM10.0002 11.9991C10.0002 10.8951 10.8962 9.9991 12.0002 9.9991C13.1042 9.9991 14.0002 10.8951 14.0002 11.9991C14.0002 13.1041 13.1042 13.9991 12.0002 13.9991C10.8962 13.9991 10.0002 13.1041 10.0002 11.9991Z" fill="#65676A"/>
</svg>

<svg xmlns="http://www.w3.org/2000/svg" width="24" height="24" viewBox="0 0 24 24">
    <path fill="#65676A" fill-rule="evenodd" d="M12 2c5.514 0 10 4.486 10 10s-4.486 10-10 10S2 17.514 2 12 6.486 2 12 2zm1 2.07V7h-2V4.07C7.39 4.523 4.523 7.389 4.07 11H7v2H4.07c.453 3.612 3.32 6.477 6.93 6.93V17h2v2.93c3.612-.453 6.477-3.318 6.931-6.93h-2.93v-2h2.93c-.454-3.611-3.319-6.477-6.93-6.93zM12 10c1.104 0 2 .895 2 2 0 1.104-.896 2-2 2s-2-.896-2-2c0-1.105.896-2 2-2z"/>
</svg>
